src/icons/solid/users/logout.svg

<svg width="24" height="24" viewBox="0 0 24 24" fill="none" xmlns="http://www.w3.org/2000/svg">
<g clip-path="url(#clip0_4550_422)">
<path d="M14.1729 2C15.3359 2.05783 16.2109 2.99287 16.1612 4.08203V9.83594H7.90045C6.66797 9.83608 5.66413 10.8098 5.66413 12.0049C5.66416 13.1999 6.66799 14.1737 7.90045 14.1738H16.1612V19.957C16.2107 21.0074 15.336 21.9421 14.213 22H2.9903C1.82727 21.9422 0.952314 21.0071 1.00202 19.918V4.04297C0.952561 2.99258 1.82721 2.0579 2.95026 2H14.1729Z" fill="#3C3B44"/>
<path d="M18.3087 8.17871C18.5969 7.89919 19.0741 7.89919 19.3624 8.17871L22.7813 11.4941C22.8509 11.5616 22.9107 11.6388 22.9405 11.7256C22.9802 11.8123 23.0001 11.9086 23.0001 12.0049C23.0001 12.1012 22.9802 12.1975 22.9405 12.2842C22.9007 12.3709 22.8509 12.4482 22.7813 12.5156L19.3624 15.8311C19.2133 15.9756 19.0239 16.043 18.835 16.043C18.6463 16.0429 18.4577 15.9756 18.3087 15.8311C18.0204 15.5515 18.0204 15.0891 18.3087 14.8096L20.4551 12.7275H7.90045C7.4931 12.7273 7.15536 12.3999 7.15534 12.0049C7.15534 11.6098 7.49308 11.2824 7.90045 11.2822H20.4551L18.3087 9.2002C18.0204 8.92071 18.0205 8.45824 18.3087 8.17871Z" fill="#3C3B44"/>
</g>
<defs>
<clipPath id="clip0_4550_422">
<rect width="24" height="24" fill="white"/>
</clipPath>
</defs>
</svg>

<svg xmlns="http://www.w3.org/2000/svg" width="24" height="24" fill="none" viewBox="0 0 24 24"><g fill="currentColor" clip-path="url(#a)"><path d="M14.173 2c1.163.058 2.038.993 1.988 2.082v5.754h-8.26c-1.233 0-2.237.974-2.237 2.169s1.004 2.169 2.236 2.169h8.261v5.783c.05 1.05-.825 1.985-1.948 2.043H2.99c-1.163-.058-2.038-.993-1.988-2.082V4.043C.952 2.993 1.827 2.058 2.95 2z"/><path d="M18.309 8.179a.767.767 0 0 1 1.053 0l3.42 3.315a.6.6 0 0 1 .159.232.67.67 0 0 1 0 .558.8.8 0 0 1-.16.232l-3.419 3.315a.75.75 0 0 1-.527.212.75.75 0 0 1-.526-.212.71.71 0 0 1 0-1.021l2.146-2.083H7.9a.74.74 0 0 1-.745-.722.74.74 0 0 1 .745-.723h12.555L18.31 9.2a.71.71 0 0 1 0-1.021"/></g><defs><clipPath id="a"><path fill="currentColor" d="M0 0h24v24H0z"/></clipPath></defs></svg>
